!!!COM: Beethoven
!!!OTL: 13 Variationen uber "Es war einmal ein alter Mann" aus "Das rote Kappchen" von K. Ditters von Dittersdorf
!!!Variation: Variation 8 c
**function	**harm	**kern	**kern
*	*	*clefF4	*clefG2
*	*	*k[f#c#g#]	*k[f#c#g#]
*M2/4	*M2/4	*M2/4	*M2/4
*A:	*A:	*A:	*A:
8D	8Vb	8eJ)	16r
.	.	.	(16b
=311	=311	=311	=311
4D	4I	16r	8.b#L
.	.	(16ALK	.
.	.	8eJ	.
.	.	.	16cc#Jk
*	*	*clefG2	*
4D	4V7/V	16r	8.eeL
.	.	16aLK	.
.	.	8BJ	.
.	.	.	16dd#Jk
=312	=312	=312	=312
4D	4V	16r	8.ff#L
.	.	16eLK	.
.	.	8g#J	.
.	.	.	16eeJk
4D	4Vb	16r	8gg#)
.	.	16eLK	.
.	.	8G#J)	16r
.	.	.	(16b
=313	=313	=313	=313
*	*	*clefF4	*
4D	4I	16r	8.b#L
.	.	(16AALK	.
.	.	8AJ	.
.	.	.	16cc#Jk
4D	4V/V	16r	8.eeL
.	.	16BBLK	.
.	.	8BJ	.
.	.	.	16dd#Jk
=314	=314	=314	=314
4.D	4.Vb	16r	8.ff#L
.	.	16GG#LK	.
.	.	8G#J	.
.	.	.	16eeJk
.	.	16r	8bb)
.	.	16EELK	.
8D	8V	8EJ)	16r
.	.	.	(16b
=315	=315	=315	=315
*	*	*clefG2	*
4D	4I	16r	8.b#L
.	.	(16ALK	.
.	.	8eJ	.
.	.	.	16cc#Jk
4D	4V7/V	16r	8.eeL
.	.	16aLK	.
.	.	8BJ	.
.	.	.	16dd#Jk
=316	=316	=316	=316
4.D	4.V	16r	8.ff#L
.	.	16eLK	.
.	.	8g#J	.
.	.	.	16eeJk
.	.	16r	8gg#)
.	.	16eLK	.
8D	8Vb	8G#J)	16r
.	.	.	(16b
=317	=317	=317	=317
4D	4I	16r	8.b#L
.	.	(16ALK	.
.	.	8eJ	.
.	.	.	16cc#Jk
4D	4V7/V	16r	8.eeL
.	.	16aLK	.
.	.	8BJ	.
.	.	.	16dd#Jk
=318	=318	=318	=318
4D	4V	16r	8.ff#L
.	.	16eLK	.
.	.	8g#J	.
.	.	.	16eeJk
4D	4Vb/V	16r	8.gg#L
.	.	16bLK	.
.	.	8d#J	.
.	.	.	16ff#Jk
=319	=319	=319	=319
4D	4V	16r	8.aaL
.	.	16bLK	.
.	.	8eJ	.
.	.	.	16gg#Jk
4D	4V7/V	16r	8.eeL
.	.	16aLK	.
.	.	8BJ)	.
.	.	.	16dd#Jk)
=320	=320	=320	=320
2D	2r	2r;	2r;
=321	=321	=321	=321
2D	2V	2r	(4ee
.	.	.	16dd#LL
.	.	.	16ee
.	.	.	16dd#
.	.	.	16eeJJ)
*-	*-	*-	*-
